X: 7
T: The Bombardier Beetle
T: Bombardier Beetle
C:Phil Cunningham
M:C
L:1/8
K:EMin
|: A2 Bc BG A2| A2 fg fd g2| a2 ge degd| egdg BGGB|
A2 Bc BG A2| A2 fg fd g2| a2 ge degd|  egdB A2 A2 :|
|:a2 ea fd g2| G2 Bd GdBA| a2 ea fdgG| (3GGG dB A2 AA|
a2 ea fd g2| (3GGG dG/G/ GdBA| a2 ea fdgG| (3GGG dB A2 AA :|
|:AccB BAAB| G2 fg fd g| a2 ge degd| egdg BGGB|
AccB BAAB| G2 fg fd g2| a2 ge degd| egdB AA A2 :|
|:a2 ea caea| Aaea fd g2| G2 Bd e2 dg| e2 dg BG G2|
a2 ea caea| Aaea fd g2 | G2 Bd e2 dg| e2 dB AA A2 :|

%%sep 2 1 500

